frontend/public/svg/interface/puzzle.svg

<svg width="153" height="136" viewBox="0 0 153 136" fill="none" xmlns="http://www.w3.org/2000/svg">
<g clip-path="url(#clip0)">
<path d="M91.2384 20.6701C95.7221 20.6701 99.8352 20.6396 103.948 20.6791C107.618 20.7134 111.33 20.5003 114.948 20.9692C122.694 21.9749 127.121 26.546 127.908 34.3219C128.418 39.3617 128.414 44.4526 128.655 49.8305C130.554 50.1485 132.434 50.5687 134.287 51.0894C142.568 53.7997 148.835 58.7449 151.593 67.2626C154.333 75.7347 152.169 82.7542 145.143 88.259C141.075 91.4466 136.571 93.813 130.954 94.5584C131.364 98.1514 131.825 101.617 132.143 105.101C132.545 109.505 132.85 113.918 133.149 118.329C133.189 119.215 133.134 120.102 132.983 120.977C131.771 128.961 127.981 132.464 119.815 132.735C112.008 132.994 104.188 132.879 96.3796 133.117C90.6995 133.291 87.1266 130.786 85.1414 125.579C84.1205 123.006 82.9293 120.505 81.5763 118.089C76.9386 109.549 66.0501 108.95 59.6354 114.026C55.1902 117.546 52.6126 122.251 50.9588 127.53C50.7171 128.268 50.5583 129.032 50.4852 129.805C50.2895 132.25 48.9196 133.743 46.5965 134.153C42.5519 134.865 38.4526 135.944 34.3976 135.849C26.8302 135.673 19.2811 134.774 11.7261 134.151C11.0641 134.064 10.4115 133.917 9.77734 133.71C3.51009 131.974 1.05277 128.955 1.00645 122.511C0.947739 114.313 1.05348 106.114 1.08545 97.9156C1.08936 96.9209 1.10225 95.9249 1.06506 94.9308C0.950247 91.8766 2.16969 90.5179 5.32516 90.2679C7.87395 90.0633 10.4227 89.8392 12.9761 89.7064C21.0953 89.2855 27.5718 76.0371 21.7638 67.837C19.4153 64.5223 15.8972 62.8249 11.786 62.4616C9.90136 62.2945 8.0146 62.132 6.13647 61.9073C5.39152 61.8787 4.68802 61.56 4.17811 61.0201C3.6682 60.4802 3.39309 59.7625 3.41235 59.0227C3.40778 51.0712 2.17267 43.0855 3.97775 35.1787C4.14998 34.4243 4.36219 33.6749 4.60813 32.9411C6.40147 27.5944 10.0534 24.2825 15.74 23.7722C20.2791 23.3655 24.8651 23.4444 29.4309 23.3706C32.8695 23.3149 36.3102 23.359 39.8904 23.359C40.0861 22.7723 40.3053 22.1596 40.5036 21.5411C44.0198 10.5912 51.6869 3.73483 62.6303 0.951367C72.5241 -1.56528 85.2484 2.23621 89.5677 15.423C90.1516 17.2001 90.7061 18.9914 91.2384 20.6701ZM9.29186 55.5689C10.502 55.5689 11.1566 55.5689 11.8109 55.5689C25.592 55.5359 34.6212 66.7451 32.8396 79.7726C32.2218 84.2917 30.0135 88.1159 27.5013 91.8028C25.395 94.8408 22.3325 97.099 18.7938 98.2233C15.1928 99.5587 11.2782 99.8261 7.52689 98.9926C7.43726 99.4693 7.3899 99.9531 7.38579 100.438C8.07925 107.487 8.74348 114.541 9.52697 121.581C9.79574 123.991 10.4011 124.536 12.9506 124.837C17.048 125.321 21.1577 125.864 25.2741 125.991C31.4891 126.186 37.7142 126.042 43.9533 126.042C44.0036 125.982 44.1059 125.912 44.1339 125.816C44.357 125.075 44.5463 124.326 44.7818 123.588C46.8766 117.021 49.9967 111.102 55.7544 106.927C60.73 103.319 66.2817 101.622 72.4406 102.573C83.0089 104.207 88.9988 110.938 92.3083 120.528C92.7701 121.865 93.1061 123.248 93.523 124.684C94.7983 124.684 95.9002 124.715 97 124.678C101.46 124.528 105.92 124.387 110.378 124.184C113.385 124.046 116.396 123.89 119.391 123.596C122.47 123.295 123.074 122.754 123.175 119.686C123.277 116.596 123.077 113.492 122.922 110.399C122.677 105.542 122.378 100.685 122.059 95.8277C122.033 94.6238 121.86 93.4283 121.544 92.2658C120.347 88.555 121.224 86.559 124.95 85.4542C127.4 84.7282 129.934 84.2885 132.425 83.692C135.699 82.9382 138.708 81.3191 141.132 79.0071C141.956 78.252 142.61 77.3343 143.053 76.3124C143.496 75.2904 143.718 74.1875 143.705 73.0756C143.808 69.9515 142.907 66.8766 141.131 64.2957C138.146 60.1367 134.028 57.6297 129.169 56.2956C128.111 56.0974 127.018 56.2068 126.021 56.6104C122.934 57.7113 121.03 56.8046 120.48 53.5361C120.117 51.2398 119.919 48.9209 119.886 46.5968C119.799 42.9443 120.012 39.2826 119.859 35.6346C119.638 30.3889 117.947 28.538 112.821 27.5031C111.948 27.3286 111.06 27.23 110.169 27.2084C104.816 27.0737 99.4607 26.9979 94.1081 26.8386C92.6423 26.7952 91.44 26.7784 90.1698 27.9687C88.3634 29.6597 86.1363 29.2401 84.7102 27.1716C83.9456 25.9566 83.3644 24.6366 82.986 23.2541C82.2926 21.0411 81.8229 18.7602 81.1646 16.5357C80.0824 12.876 77.6001 10.4636 74.0735 9.10034C68.7776 7.05257 63.5703 7.26758 58.6078 10.0718C51.8402 13.896 46.8711 19.2557 44.9949 26.9358C44.4078 29.3443 42.9414 30.2478 40.7762 30.4168C39.2172 30.4944 37.6551 30.4809 36.0976 30.3766C30.0842 30.1396 24.0941 29.5347 18.0506 30.3158C14.3061 30.7995 12.3334 32.559 11.3079 36.1079C9.4937 42.3937 10.3063 48.8538 9.29186 55.5689Z" fill="black"/>
</g>
<defs>
<clipPath id="clip0">
<rect width="152" height="136" fill="white" transform="translate(0.777344)"/>
</clipPath>
</defs>
</svg>

<svg xmlns="http://www.w3.org/2000/svg" width="153" height="136" fill="none" viewBox="0 0 153 136"><g clip-path="url(#a)"><path fill="#000" d="M91.238 20.67c4.484 0 8.597-.03 12.71.01 3.67.033 7.382-.18 11 .29 7.746 1.005 12.173 5.576 12.96 13.352.51 5.04.506 10.13.747 15.508q2.85.479 5.632 1.26c8.281 2.71 14.548 7.655 17.306 16.173 2.74 8.472.576 15.491-6.45 20.996-4.068 3.188-8.572 5.554-14.189 6.3.41 3.592.871 7.058 1.189 10.542.402 4.404.707 8.817 1.006 13.228.04.886-.015 1.773-.166 2.648-1.212 7.984-5.002 11.487-13.168 11.758-7.807.259-15.627.144-23.435.382-5.68.174-9.253-2.331-11.239-7.538a62.5 62.5 0 0 0-3.565-7.49c-4.637-8.54-15.526-9.139-21.94-4.063-4.446 3.52-7.023 8.225-8.677 13.504-.242.738-.4 1.502-.474 2.275-.196 2.445-1.565 3.938-3.889 4.348-4.044.712-8.143 1.791-12.198 1.696-7.568-.176-15.117-1.075-22.672-1.698a11 11 0 0 1-1.949-.441c-6.267-1.736-8.724-4.755-8.77-11.199-.06-8.198.046-16.397.078-24.595.004-.995.017-1.991-.02-2.985-.115-3.054 1.105-4.413 4.26-4.663 2.549-.205 5.098-.429 7.651-.562 8.12-.42 14.596-13.669 8.788-21.869-2.349-3.315-5.867-5.012-9.978-5.375-1.885-.168-3.771-.33-5.65-.555a2.84 2.84 0 0 1-1.958-.887 2.8 2.8 0 0 1-.766-1.997c-.004-7.952-1.24-15.937.566-23.844.172-.755.384-1.504.63-2.238 1.793-5.347 5.445-8.659 11.132-9.169 4.54-.406 9.125-.328 13.69-.401 3.44-.056 6.88-.012 10.46-.012.196-.587.415-1.2.614-1.818C44.02 10.591 51.687 3.735 62.63.951c9.894-2.516 22.618 1.285 26.938 14.472.584 1.777 1.138 3.568 1.67 5.247M9.292 55.57h2.519c13.781-.033 22.81 11.176 21.029 24.204-.618 4.519-2.827 8.343-5.339 12.03a16.77 16.77 0 0 1-8.707 6.42 19.96 19.96 0 0 1-11.267.77 8 8 0 0 0-.141 1.445c.693 7.049 1.357 14.103 2.141 21.143.269 2.41.874 2.955 3.424 3.256 4.097.484 8.207 1.027 12.323 1.154 6.215.195 12.44.051 18.68.051.05-.06.152-.13.18-.226.223-.741.412-1.49.648-2.228 2.095-6.567 5.215-12.486 10.972-16.661 4.976-3.608 10.528-5.305 16.687-4.354 10.568 1.634 16.558 8.365 19.867 17.955.462 1.337.798 2.72 1.215 4.156 1.275 0 2.377.031 3.477-.006 4.46-.15 8.92-.291 13.378-.494 3.007-.138 6.018-.294 9.013-.588 3.079-.301 3.683-.842 3.784-3.91.102-3.09-.098-6.194-.253-9.287a962 962 0 0 0-.863-14.571 14.8 14.8 0 0 0-.515-3.562c-1.197-3.711-.32-5.707 3.406-6.812 2.45-.726 4.984-1.165 7.475-1.762a18.7 18.7 0 0 0 8.707-4.685 7.9 7.9 0 0 0 2.573-5.931 14.63 14.63 0 0 0-2.574-8.78c-2.985-4.16-7.103-6.666-11.962-8a5.63 5.63 0 0 0-3.148.314c-3.087 1.101-4.991.195-5.541-3.074a49 49 0 0 1-.594-6.94c-.087-3.652.126-7.313-.027-10.961-.221-5.246-1.912-7.097-7.038-8.132a15.5 15.5 0 0 0-2.652-.295c-5.353-.134-10.708-.21-16.06-.37-1.467-.043-2.669-.06-3.94 1.13-1.806 1.692-4.033 1.272-5.459-.796a14.6 14.6 0 0 1-1.724-3.918c-.693-2.213-1.163-4.494-1.821-6.718-1.083-3.66-3.565-6.072-7.092-7.436-5.295-2.047-10.503-1.832-15.465.972-6.768 3.824-11.737 9.184-13.613 16.864-.587 2.408-2.054 3.312-4.219 3.48a40 40 0 0 1-4.678-.04c-6.014-.236-12.004-.841-18.047-.06-3.745.483-5.718 2.243-6.743 5.792-1.814 6.286-1.002 12.746-2.016 19.46"/></g><defs><clipPath id="a"><path fill="#fff" d="M.777 0h152v136h-152z"/></clipPath></defs></svg>
